src/main/resources/icons/IdeTalkCoreIcons/nodes/group_close.svg

<svg xmlns="http://www.w3.org/2000/svg" width="16" height="16" viewBox="0 0 16 16">
  <g fill="none" fill-rule="evenodd">
    <path fill="#9AA7B0" fill-opacity=".8" d="M15,12.5556571 C14.4839809,12.2794218 13.9181602,12.0645234 13.3667137,11.9111714 C14.2034198,11.3233318 14.75,10.3507898 14.75,9.25 C14.75,7.454375 13.295625,6 11.5,6 C9.704375,6 8.25,7.454375 8.25,9.25 C8.25,10.3507898 8.79658024,11.3233318 9.63328629,11.9111714 C8.81484816,12.1387713 7.96474694,12.5019422 7.29279001,13 L1,13 L1,2.05128 C1,2.02295884 1.02295884,2 1.05128,2 L4.97888,2 C5.61570121,2.03457993 6.22161957,2.28559443 6.69633,2.71149 L7.98457,4 L15,4 L15,12.5556571 Z"/>
    <path fill="#9AA7B0" d="M11.5,11.5 C12.743125,11.5 13.75,10.493125 13.75,9.25 C13.75,8.006875 12.743125,7 11.5,7 C10.256875,7 9.25,8.006875 9.25,9.25 C9.25,10.493125 10.256875,11.5 11.5,11.5 Z"/>
    <path fill="#40B6E0" d="M11.5,12.625 C9.998125,12.625 7,13.37875 7,14.875 L7,16 L16,16 L16,14.875 C16,13.37875 13.001875,12.625 11.5,12.625 Z"/>
  </g>
</svg>

<svg xmlns="http://www.w3.org/2000/svg" width="16" height="16" viewBox="0 0 16 16"><rect id="frame" width="16" height="16" fill="none"/><g fill="none" fill-rule="evenodd"><path fill="#9AA7B0" fill-opacity=".8" d="M15 12.556a8.096 8.096 0 0 0-1.633-.645A3.25 3.25 0 1 0 8.25 9.25c0 1.1.547 2.073 1.383 2.661-.818.228-1.668.59-2.34 1.089H1V2.051C1 2.023 1.023 2 1.051 2H4.98a2.8 2.8 0 0 1 1.717.711L7.985 4H15v8.556z"/><path fill="#9AA7B0" d="M11.5 11.5a2.25 2.25 0 1 0 .001-4.499A2.25 2.25 0 0 0 11.5 11.5z"/><path fill="#40B6E0" d="M11.5 12.625c-1.502 0-4.5.754-4.5 2.25V16h9v-1.125c0-1.496-2.998-2.25-4.5-2.25z"/></g></svg>
